!!!COM:      Bach, Johann Sebastian
!!!CDT:      1685/03/31/-1750/07/28/
!!!OPR@@GER: Das wohltemperirte Clavier
!!!OVM@@GER: Band II
!!!OPR@ENG:  Well-Tempered Clavier
!!!OVM@ENG:  Book II
!!!OTL:      Prelude
!!!OKY:      B minor
!!!ONM:      no. 24
!!!SCT:      BWV 893
!!!OMV:      1
**kern	**kern	**kern	**kern
*clefF4	*	*	*clefG2
*k[f#c#]	*	*	*k[f#c#]
*b:	*	*	*b:
*M2/2	*	*	*M2/2
*met(c|)	*	*	*met(c|)
*MM120	*MM120	*MM120	*MM120
=1-	=1-	=1-	=1-
4BB	1ryy	1ryy	8d
.	.	.	8f#
4D	.	.	8B
.	.	.	8c#
[4F#	.	.	8d
.	.	.	8f#
16F#]	.	.	8B
16G	.	.	.
16F#	.	.	8d
16E#	.	.	.
=2	=2	=2	=2
4F#	1ryy	1ryy	8c#
.	.	.	8f#
4AA#	.	.	16g
.	.	.	16f#
.	.	.	16e#
.	.	.	16f#
4C#	.	.	8a#
.	.	.	8f#
4F#	.	.	8cc#
.	.	.	8en
=3	=3	=3	=3
4BB	1ryy	1ryy	8d
.	.	.	8f#
4D	.	.	8B
.	.	.	8c#
[4F#	.	.	8d
.	.	.	8f#
16F#]	.	.	8B
16G	.	.	.
16F#	.	.	8d
16E#	.	.	.
=4	=4	=4	=4
4F#	1ryy	1ryy	8c#
.	.	.	8f#
4FF#	.	.	8c#
.	.	.	8A#
8r	.	.	8F#
8En	.	.	8r
8D	.	.	4r
8C#	.	.	.
=5	=5	=5	=5
8D	1ryy	1ryy	4r
8F#	.	.	.
8BB	.	.	4dd
8C#	.	.	.
8D	.	.	4b
8F#	.	.	.
8BB	.	.	4f#
8D	.	.	.
=6	=6	=6	=6
8C#	1ryy	1ryy	4r
8F#	.	.	.
16G	.	.	4ee
16F#	.	.	.
16E#	.	.	.
16F#	.	.	.
8A#	.	.	4cc#
8F#	.	.	.
8c#	.	.	4f#
8En	.	.	.
=7	=7	=7	=7
8D	1ryy	1ryy	4r
8F#	.	.	.
8BB	.	.	[4ff#
8C#	.	.	.
8D	.	.	8ff#]
8F#	.	.	16ee
.	.	.	16dd
8BB	.	.	16ee
.	.	.	16dd
8D	.	.	16cc#
.	.	.	16b
=8	=8	=8	=8
8C#	1ryy	1ryy	4b
8F#	.	.	.
8C#	.	.	4a#
8AA#	.	.	.
4FF#	.	.	8r
.	.	.	16e
.	.	.	16d
4A#X	.	.	16c#
.	.	.	16d
.	.	.	8e
=9	=9	=9	=9
4BB	1ryy	1ryy	8d
.	.	.	16b
.	.	.	16cc#
4B	.	.	16dd
.	.	.	16cc#
.	.	.	[8b
4c#	.	.	8b]
.	.	.	4ff#
4d#	.	.	.
.	.	.	[8an
=10	=10	=10	=10
4e	1ryy	1ryy	8an]
.	.	.	16b
.	.	.	16a
4E	.	.	16g#
.	.	.	16a
.	.	.	[8b
4F#	.	.	8b]
.	.	.	4d
4G#	.	.	.
.	.	.	8b
=11	=11	=11	=11
4AA	1ryy	1ryy	8c#
.	.	.	16a
.	.	.	16b
4A	.	.	16cc#
.	.	.	16b
.	.	.	[8a
4B	.	.	8a]
.	.	.	4ee
4c#	.	.	.
.	.	.	[8gn
=12	=12	=12	=12
4d	1ryy	1ryy	8g]
.	.	.	16a
.	.	.	16g
4D	.	.	16f#
.	.	.	16g
.	.	.	[8a
4E	.	.	8a]
.	.	.	4c#
4F#	.	.	.
.	.	.	8a
=13	=13	=13	=13
4GG	1ryy	1ryy	8B
.	.	.	4f#
4BB	.	.	.
.	.	.	[8a
4D	.	.	8a]
.	.	.	16g
.	.	.	16f#
4E	.	.	16g
.	.	.	16f#
.	.	.	16e
.	.	.	16d
=14	=14	=14	=14
4AA	1ryy	1ryy	8c#
.	.	.	4g
4C#	.	.	.
.	.	.	[8b
4E	.	.	8b]
.	.	.	16a
.	.	.	16g
4F#	.	.	16a
.	.	.	16g
.	.	.	16f#
.	.	.	16e
=15	=15	=15	=15
4BB	1ryy	1ryy	8d
.	.	.	4a
4D	.	.	.
.	.	.	[8ccn
4F#	.	.	8cc]
.	.	.	16b
.	.	.	16a
4G	.	.	16b
.	.	.	16a
.	.	.	16g
.	.	.	16f#
=16	=16	=16	=16
4C#X	1ryy	1ryy	8e
.	.	.	4b
4E	.	.	.
.	.	.	[8dd
4G	.	.	8dd]
.	.	.	16cc#
.	.	.	16b
4A	.	.	16cc#
.	.	.	16b
.	.	.	16a
.	.	.	16g
=17	=17	=17	=17
4D	1ryy	1ryy	8f#
.	.	.	8a
4F#	.	.	8d
.	.	.	8e
[4A	.	.	8f#
.	.	.	8a
16A]	.	.	8d
16B	.	.	.
16A	.	.	8f#
16G#	.	.	.
=18	=18	=18	=18
4A	1ryy	1ryy	8e
.	.	.	8a
4C#	.	.	16b
.	.	.	16a
.	.	.	16g#
.	.	.	16a
4E	.	.	8cc#
.	.	.	8a
4A	.	.	8ee
.	.	.	8gn
=19	=19	=19	=19
4D	1ryy	1ryy	8f#
.	.	.	8a
4F#	.	.	8d
.	.	.	8e
[4A	.	.	8f#
.	.	.	8a
16A]	.	.	8d
16B	.	.	.
16A	.	.	8f#
16G#	.	.	.
=20	=20	=20	=20
4A	1ryy	1ryy	8e
.	.	.	8a
4AA	.	.	8e
.	.	.	8c#
8r	.	.	8A
8Gn	.	.	8r
8F#	.	.	4r
8E	.	.	.
=21	=21	=21	=21
8F#	1ryy	1ryy	4r
8A	.	.	.
8D	.	.	4a
8E	.	.	.
8F#	.	.	16b
.	.	.	16a
8A	.	.	16g#
.	.	.	16a
8D	.	.	4ff#`
8F#	.	.	.
=22	=22	=22	=22
8E	1ryy	1ryy	4r
8A	.	.	.
16B	.	.	4a
16A	.	.	.
16G#	.	.	.
16A	.	.	.
8c#	.	.	16b
.	.	.	16a
8A	.	.	16g#
.	.	.	16a
8e	.	.	4ggn`
8Gn	.	.	.
=23	=23	=23	=23
8F#	1ryy	1ryy	4r
8A	.	.	.
8D	.	.	4a
8E	.	.	.
8F#	.	.	16b
.	.	.	16a
8A	.	.	16g#
.	.	.	16a
8D	.	.	8aa
8F#	.	.	8dd
=24	=24	=24	=24
8E	1ryy	1ryy	4dd
8A	.	.	.
8E	.	.	[4cc#
8C#	.	.	.
8AA	.	.	16cc#]
.	.	.	16b
8A	.	.	16cc#
.	.	.	16dd#
8G	.	.	16ee
.	.	.	16dd#
8F#	.	.	16cc#
.	.	.	16dd#
=25	=25	=25	=25
8G	1ryy	1ryy	8ee
8B	.	.	8gg
8E	.	.	8b
8F#	.	.	8dd#
8G	.	.	8ee
8B	.	.	8gg
8E	.	.	8b
8G	.	.	8ee
=26	=26	=26	=26
8F#	1ryy	1ryy	4ee
8B	.	.	.
16cn	.	.	8dd#
16B	.	.	.
16A#	.	.	8ff#
16B	.	.	.
8d#	.	.	4b
8B	.	.	.
8f#	.	.	8a
8An	.	.	8ff#
=27	=27	=27	=27
8G	1ryy	1ryy	16ff#
.	.	.	16ee
8B	.	.	8dd#
8E	.	.	8ee
8F#	.	.	8a
8G	.	.	4a
8B	.	.	.
8E	.	.	8g
8G	.	.	8ee
=28	=28	=28	=28
8F#	1ryy	1ryy	8ee
8B	.	.	8dd#
8F#	.	.	[4aa
8D#	.	.	.
4BB	.	.	16aa]
.	.	.	16gg
.	.	.	16ff#
.	.	.	16ee
4r	.	.	16dd#X
.	.	.	16cc#
.	.	.	16b
.	.	.	16a
=29	=29	=29	=29
4r	1ryy	1ryy	8g
.	.	.	8b
4G	.	.	8e
.	.	.	8f#
4E	.	.	8g
.	.	.	8b
4BB	.	.	8e
.	.	.	8g
=30	=30	=30	=30
4r	1ryy	1ryy	8f#
.	.	.	8b
4A	.	.	16ccn
.	.	.	16b
.	.	.	16a#
.	.	.	16b
4F#	.	.	8dd#
.	.	.	8b
4BB	.	.	8ff#
.	.	.	8an
=31	=31	=31	=31
4r	1ryy	1ryy	8g
.	.	.	8b
[4BM	.	.	8e
.	.	.	8f#
8B]	.	.	8g
16A	.	.	8b
16G	.	.	.
16A	.	.	8e
16G	.	.	.
16F#	.	.	8g
16E	.	.	.
=32	=32	=32	=32
4E	1ryy	1ryy	8f#
.	.	.	8b
4D#	.	.	8f#
.	.	.	8d#
8r	.	.	4B
16A	.	.	.
16G	.	.	.
16F#	.	.	4dd#X
16G	.	.	.
8A	.	.	.
=33	=33	=33	=33
8G	1ryy	1ryy	4ee
16e	.	.	.
16f#	.	.	.
16g	.	.	4b
16f#	.	.	.
[8e	.	.	.
8e]	.	.	16gg
.	.	.	16ff#
4b	.	.	16ee
.	.	.	16ff#
.	.	.	8gg
[8dn	.	.	8b
=34	=34	=34	=34
8d]	1ryy	1ryy	8aW
16e	.	.	8g#
16d	.	.	.
16c#	.	.	8a
16d	.	.	.
[8e	.	.	8cc#
8e]	.	.	8cc#
4Gn	.	.	8ee
.	.	.	8aa
8e	.	.	8cc#
=35	=35	=35	=35
8F#	1ryy	1ryy	4dd
16d	.	.	.
16e	.	.	.
16f#	.	.	4a
16e	.	.	.
[8d	.	.	.
8d]	.	.	16ff#
.	.	.	16ee
4a	.	.	16dd
.	.	.	16ee
.	.	.	8ff#
[8cn	.	.	8a
=36	=36	=36	=36
8c]	1ryy	1ryy	8gW
16d	.	.	8f#
16cn	.	.	.
16B	.	.	8g
16c	.	.	.
[8d	.	.	8b
8d]	.	.	8b
4F#	.	.	8dd
.	.	.	8gg
8d	.	.	8b
=37	=37	=37	=37
4E	1ryy	1ryy	8cc#
.	.	.	4gg
4D	.	.	.
.	.	.	8ff#
4C#	.	.	8a#
.	.	.	4ee
[4BB	.	.	.
.	.	.	8dd
=38	=38	=38	=38
8BB]	1ryy	1ryy	4e#
4d	.	.	.
.	.	.	4f#
8c#	.	.	.
8E#	.	.	4g#
4B	.	.	.
.	.	.	4a
8A	.	.	.
=39	=39	=39	=39
8D	1ryy	1ryy	4b
4G#	.	.	.
.	.	.	4cc#
8F#	.	.	.
4BB	.	.	8dd
.	.	.	4e#
4B	.	.	.
.	.	.	8f#
=40	=40	=40	=40
4E#	1ryy	1ryy	8g#
.	.	.	4B
4G#	.	.	.
.	.	.	4d
4C#	.	.	.
.	.	.	4c#
4E#	.	.	.
.	.	.	8B
=41	=41	=41	=41
4FF#	1ryy	1ryy	8A
.	.	.	8c#
4AA	.	.	8F#
.	.	.	8G#
[4C#	.	.	8A
.	.	.	8c#
16C#]	.	.	8F#
16D	.	.	.
16C#	.	.	8A
16BB#	.	.	.
=42	=42	=42	=42
4C#	1ryy	1ryy	8G#
.	.	.	8c#
4EE#	.	.	16d
.	.	.	16c#
.	.	.	16B#
.	.	.	16c#
4GG#	.	.	8e#
.	.	.	8c#
4C#	.	.	8g#X
.	.	.	8Bn
=43	=43	=43	=43
8FF#	1ryy	1ryy	4A
8C#	.	.	.
8F#	.	.	4c#
8G#	.	.	.
8A	.	.	4f#
8c#	.	.	.
8F#	.	.	4a
8A	.	.	.
=44	=44	=44	=44
8G#	1ryy	1ryy	4e#
8c#	.	.	.
16d	.	.	4g#
16c#	.	.	.
16B#	.	.	.
16c#	.	.	.
8e#	.	.	4b
8c#	.	.	.
8g#X	.	.	4dd
8Bn	.	.	.
=45	=45	=45	=45
4A	1ryy	1ryy	8cc#
.	.	.	16f#
.	.	.	16g#
4F#	.	.	16a
.	.	.	16g#
.	.	.	[8f#
4G#	.	.	8f#]
.	.	.	4cc#
4A#	.	.	.
.	.	.	[8e
=46	=46	=46	=46
4B	1ryy	1ryy	8e]
.	.	.	16f#
.	.	.	16e
4BB	.	.	16d
.	.	.	16e
.	.	.	[8f#
4C#	.	.	8f#]
.	.	.	4A
4D#	.	.	.
.	.	.	8f#
=47	=47	=47	=47
4EE	1ryy	1ryy	8G
.	.	.	16e
.	.	.	16f#
4E	.	.	16g
.	.	.	16f#
.	.	.	[8e
4F#	.	.	8e]
.	.	.	4b
4G	.	.	.
.	.	.	[8d
=48	=48	=48	=48
4A	1ryy	1ryy	8d]
.	.	.	16e
.	.	.	16d
4AA	.	.	16c#
.	.	.	16d
.	.	.	[8e
4BB	.	.	8e]
.	.	.	4G
4C#	.	.	.
.	.	.	8e
=49	=49	=49	=49
4DD	1ryy	1ryy	8F#
.	.	.	4c#
4FF#	.	.	.
.	.	.	[8e
4AA	.	.	8e]
.	.	.	16d
.	.	.	16c#
4D	.	.	16d
.	.	.	16c#
.	.	.	16B
.	.	.	16A#
=50	=50	=50	=50
4GG	1ryy	1ryy	8B
.	.	.	4f#
4BB	.	.	.
.	.	.	[8a
4D	.	.	8a]
.	.	.	16g
.	.	.	16f#
4G	.	.	16g
.	.	.	16f#
.	.	.	16e
.	.	.	16d
=51	=51	=51	=51
4C#	1ryy	1ryy	8e
.	.	.	4b
4E	.	.	.
.	.	.	[8dd
4G	.	.	8dd]
.	.	.	16cc#
.	.	.	16b
4c#	.	.	16cc#
.	.	.	16b
.	.	.	16a#
.	.	.	16g#
=52	=52	=52	=52
4F#	1ryy	1ryy	8a#
.	.	.	4ee
4A#	.	.	.
.	.	.	[8gg
4c#	.	.	8gg]
.	.	.	16ff#
.	.	.	16ee
4f#	.	.	16ff#
.	.	.	16ee
.	.	.	16dd
.	.	.	16cc#
=53	=53	=53	=53
4B	1ryy	1ryy	8dd
.	.	.	4a#
4g	.	.	.
.	.	.	8b
8An	.	.	8cc#
8g	.	.	8dd#
8f#	.	.	16ee
.	.	.	16dd#
8A	.	.	16cc#
.	.	.	16dd#
=54	=54	=54	=54
4G	1ryy	1ryy	8ee
.	.	.	4a#
4e	.	.	.
.	.	.	8b
8F#	.	.	8ddn
8e	.	.	4a#X
8d	.	.	.
8F#	.	.	8b
=55	=55	=55	=55
8E	1ryy	1ryy	16gg
.	.	.	16ff#
8d	.	.	4ee
8cn	.	.	.
8E	.	.	[8ee
8D	.	.	16ee]
.	.	.	16ff#
8cn	.	.	16ee
.	.	.	16dd#
8B	.	.	8ee
8D	.	.	[8ee
=56	=56	=56	=56
*	*	*staff:4	*
*	*	*clefG2	*
*	*	*k[f#c#]	*
8C#	1ryy	2ryy	16ee]
.	.	.	16a
8B	.	.	16g
.	.	.	16f#
8A#	.	.	8g
8C#	.	.	[8ee
8BB	.	8ryy	8ee]
8A#X	.	4e	4g
8B	.	.	.
8BB	.	[8e	[8g
=57	=57	=57	=57
2AA#	1ryy	2e]	8g]
.	.	.	16f#
.	.	.	16dd
.	.	.	8ddQ
.	.	.	4cc#;
4r	.	2ryy	8r
.	.	.	16e
.	.	.	16f#
4A#X	.	.	16g
.	.	.	16f#
.	.	.	8e
=58	=58	=58	=58
4B	1ryy	1ryy	8d
.	.	.	8f#
4G	.	.	8a#
.	.	.	8b
4E	.	.	8dd
.	.	.	8cc#
4F#	.	.	8b
.	.	.	8a#X
=59	=59	=59	=59
8D	1ryy	1ryy	4b
8F#	.	.	.
8BB	.	.	4f#
8C#	.	.	.
8D	.	.	16g
.	.	.	16f#
8F#	.	.	16e#
.	.	.	16f#
8BB	.	.	4dd`
8D	.	.	.
=60	=60	=60	=60
8C#	1ryy	1ryy	4r
8F#	.	.	.
16G	.	.	4f#
16F#	.	.	.
16E#	.	.	.
16F#	.	.	.
8A#	.	.	16g
.	.	.	16f#
8F#	.	.	16e#
.	.	.	16f#
8c#	.	.	4een
8En	.	.	.
=61	=61	=61	=61
8D	1ryy	1ryy	4r
8F#	.	.	.
8BB	.	.	4f#
8C#	.	.	.
8D	.	.	16g
.	.	.	16f#
8F#	.	.	16e#
.	.	.	16f#
8BB	.	.	8ff#
8C#	.	.	8a
=62	=62	=62	=62
*	*staff:2	*staff:2	*
*	*clefG2	*	*
*	*k[f#c#]	*	*
4D	2B	2e	4a
4DD	.	.	4g#
4r	2ryy	2ryy	8r
.	.	.	16g#
.	.	.	16a#
4D	.	.	16b
.	.	.	16cc#
.	.	.	16dd
.	.	.	16ee
=63	=63	=63	=63
4C#	2e	2gn	4b
4c#	.	.	4a#
8r	2ryy	2ryy	8r
16c#	.	.	16a#X
16d	.	.	16b
16e	.	.	16cc#
16d	.	.	16b
8c#	.	.	8a#
=64	=64	=64	=64
4B	4g#	4b 4dd	4ee#
4A#	4c#	4f# 4cc#	4ff#
8r	2ryy	2r	2r
16F#	.	.	.
16G#	.	.	.
16A#X	.	.	.
16B	.	.	.
8c#	.	.	.
=65	=65	=65	=65
4D	2ryy	2ryy	8r
.	.	.	16b
.	.	.	16a
4E	.	.	16g
.	.	.	16f#
.	.	.	8e
4F#	4ryy	4d	8r
.	.	.	4b
4FF#	4c#	4e	.
.	.	.	8a#
=66	=66	=66	=66
1BB	1B;y	1d;y 1f#;y	1b;
==	==	==	==
*-	*-	*-	*-
!!!AFR:  prelude
!!!EFL:  95/96
!!!END:  1994/02/18/
!!!VID:  793837226 Bach, BWV 893-01
!!!AST:  Baroque
!!!OCY:  Deutschland
!!!ODT:  1742///
!!!PDT:  1801///
!!!EED:  Walter Hewlett
!!!ENC:  Walter Hewlett
!!!YOR:  Bach Gesellschaft Edition xiv
!!!AFT:  enhanced SCORE
!!!RDT:  2011/10/07/ by Andreas Kornstaedt using massScr2hmd
!!!SCA1: Thematisch-systematisches Verzeichnis der musikalischen Werke 
!!!SCA2: Johann Sebastian Bach: Bach-Werke-Verzeichnis (Schmieder)
!!!YEC1: Copyright 1994, 2000 Center for Computer Assisted Research 
!!!YEC2: in the Humanities
!!!YEM1: Rights to all derivative editions reserved.
!!!YEM2: Refer to licensing agreement for further details.
!!!YEN:  United States of America
!!!ref:  @{OTL}, @{SCT}
!!muse2ps: T^@{OTL} @{ONM} in @{OKY}^C^J.S. Bach\n@{SCT}-@{OMV}^
!!muse2ps: u^@{OPR@ENG}, @{OVM@ENG}^j
